X:1
T:Bye, Bye Blues
C:Grey, Bennettlown, Hamm
Z:Copyright © www.realbook.site
L:1/4
M:2/2
I:linebreak $
K:Bb
V:1 treble nm=" " snm=" "
V:1
|:"Bb" d4 | F4 |"Gb7" _G4- | G4 |$"Bb" d4 | F4 |"G7" G4- | G4 |$"C9" d4 | G4 |"F7" d4 | A4 |1$ %12
"Bb/D" c2 B2 |"Dbdim" A2 G2 |"Cm7" B2 A2 |"F7" G2 F2 :|2$"Bb6" B4 |"Gb7" _G4 |"Bb6" B4- || %19
 B z z2 |] %20

